src/components/Icon/svg-icon/social/twitter.svg

<svg xmlns="http://www.w3.org/2000/svg" width="24" height="24" viewBox="0 0 24 24">
  <path fill="#1DA1F2" fill-rule="evenodd" d="M22,5.92382812 C21.8177074,6.00195352 21.6305348,6.07519497 21.4384766,6.14355469 C21.2464183,6.2119144 21.0527354,6.27539033 20.8574219,6.33398438 C20.6621084,6.38606797 20.4635427,6.43164043 20.2617188,6.47070312 C20.0598948,6.50976582 19.8548187,6.54231758 19.6464844,6.56835938 C19.8548187,6.43815039 20.0517569,6.29329507 20.2373047,6.13378906 C20.4228525,5.97428306 20.5937492,5.79687598 20.75,5.6015625 C20.8997403,5.41275947 21.0348301,5.2076834 21.1552734,4.98632812 C21.2757167,4.76497285 21.3717444,4.53711055 21.4433594,4.30273438 C21.2480459,4.41992246 21.046225,4.52897085 20.8378906,4.62988281 C20.6295563,4.73079478 20.4147146,4.82356729 20.1933594,4.90820312 C19.9785146,4.98632852 19.7571626,5.05794238 19.5292969,5.12304688 C19.3014312,5.18815137 19.0735688,5.24348936 18.8457031,5.2890625 C18.6569001,5.09374902 18.4501964,4.91634194 18.2255859,4.75683594 C18.0009754,4.59732993 17.76172,4.46224014 17.5078125,4.3515625 C17.253905,4.23437441 16.9869806,4.14648467 16.7070312,4.08789062 C16.4270819,4.02929658 16.1406265,4 15.8476562,4 C15.2812472,4 14.7490259,4.1074208 14.2509766,4.32226562 C13.7529272,4.53711045 13.3183612,4.83007627 12.9472656,5.20117188 C12.57617,5.57226748 12.2832042,6.00683345 12.0683594,6.50488281 C11.8535146,7.00293218 11.7460938,7.53515342 11.7460938,8.1015625 C11.7460938,8.17968789 11.7477213,8.2594397 11.7509766,8.34082031 C11.7542318,8.42220093 11.7591146,8.50195273 11.765625,8.58007812 C11.7786459,8.65820352 11.7916666,8.73470015 11.8046875,8.80957031 C11.8177084,8.88444048 11.8339843,8.96093711 11.8535156,9.0390625 C11.0006468,8.99348936 10.1754597,8.86165474 9.37792969,8.64355469 C8.58039966,8.42545464 7.82031611,8.13086123 7.09765625,7.75976562 C6.38150684,7.38867002 5.71094062,6.94922129 5.0859375,6.44140625 C4.46093438,5.93359121 3.89778896,5.3704458 3.39648438,4.75195312 C3.30533809,4.90169346 3.22558628,5.05794189 3.15722656,5.22070312 C3.08886685,5.38346436 3.03190127,5.5527335 2.98632812,5.72851562 C2.93424453,5.8977873 2.89681001,6.0735668 2.87402344,6.25585938 C2.85123687,6.43815195 2.83984375,6.62369697 2.83984375,6.8125 C2.83984375,7.17057471 2.88216104,7.51399575 2.96679688,7.84277344 C3.05143271,8.17155112 3.17512939,8.48242041 3.33789062,8.77539062 C3.49414141,9.06836084 3.68456919,9.33691284 3.90917969,9.58105469 C4.13379019,9.82519653 4.38606631,10.0416657 4.66601562,10.2304688 C4.49674395,10.2239583 4.33072998,10.2076824 4.16796875,10.1816406 C4.00520752,10.1555988 3.84570391,10.1197919 3.68945312,10.0742188 C3.53320234,10.0351561 3.38183667,9.98470083 3.23535156,9.92285156 C3.08886646,9.86100229 2.94401113,9.79101602 2.80078125,9.71289062 L2.80078125,9.76171875 C2.80078125,10.2630233 2.88541582,10.7366514 3.0546875,11.1826172 C3.22395918,11.628583 3.45507666,12.027342 3.74804688,12.3789062 C4.04101709,12.736981 4.38769331,13.0380847 4.78808594,13.2822266 C5.18847856,13.5263684 5.62304453,13.69401 6.09179688,13.7851562 C6.00716104,13.811198 5.92089888,13.8339843 5.83300781,13.8535156 C5.74511675,13.873047 5.65559941,13.8860677 5.56445312,13.8925781 C5.47330684,13.905599 5.38216191,13.9153646 5.29101562,13.921875 C5.19986934,13.9283854 5.10872441,13.9316406 5.01757812,13.9316406 C4.94596318,13.9316406 4.87760449,13.930013 4.8125,13.9267578 C4.74739551,13.9235026 4.68554717,13.9186198 4.62695312,13.9121094 C4.56184863,13.9055989 4.49674512,13.897461 4.43164062,13.8876953 C4.36653613,13.8779296 4.30468779,13.8697917 4.24609375,13.8632812 C4.37630273,14.2669291 4.56510293,14.6412743 4.8125,14.9863281 C5.05989707,15.3313819 5.34960771,15.6308581 5.68164062,15.8847656 C6.01367354,16.1386731 6.38313599,16.3372389 6.79003906,16.4804688 C7.19694214,16.6236986 7.62499775,16.6985677 8.07421875,16.7050781 C7.72265449,16.9850274 7.34993687,17.2324208 6.95605469,17.4472656 C6.56217251,17.6621104 6.15039277,17.8476555 5.72070312,18.0039062 C5.29101348,18.1536466 4.84668198,18.2675777 4.38769531,18.3457031 C3.92870864,18.4238285 3.45833574,18.4628906 2.9765625,18.4628906 L2.73242188,18.4628906 C2.64778604,18.4628906 2.56640664,18.4596354 2.48828125,18.453125 C2.40364541,18.4466146 2.32063843,18.4401042 2.23925781,18.4335938 C2.1578772,18.4270833 2.07812539,18.4173178 2,18.4042969 C2.45573145,18.6972671 2.93098711,18.9576812 3.42578125,19.1855469 C3.92057539,19.4134126 4.43163799,19.605468 4.95898438,19.7617188 C5.48633076,19.92448 6.02831753,20.0465491 6.58496094,20.1279297 C7.14160435,20.2093103 7.70963252,20.25 8.2890625,20.25 C10.1770928,20.25 11.8469979,19.8968134 13.2988281,19.1904297 C14.7506583,18.4840459 15.9713492,17.5709691 16.9609375,16.4511719 C17.9440153,15.3313746 18.6910782,14.0781319 19.2021484,12.6914062 C19.7132187,11.3046806 19.96875,9.93425156 19.96875,8.58007812 C19.96875,8.53450498 19.9671224,8.48893252 19.9638672,8.44335938 C19.960612,8.39778623 19.9589844,8.35221377 19.9589844,8.30664062 L19.9589844,8.1796875 C19.9589844,8.13411436 19.9557292,8.08854189 19.9492188,8.04296875 C20.1510427,7.89973887 20.3447256,7.74674561 20.5302734,7.58398438 C20.7158212,7.42122314 20.8964835,7.251954 21.0722656,7.07617188 C21.2415373,6.90038975 21.4042961,6.71484473 21.5605469,6.51953125 C21.7167977,6.32421777 21.8632806,6.12565205 22,5.92382812 Z"/>
</svg>

<svg xmlns="http://www.w3.org/2000/svg" width="24" height="24"><path fill="#1DA1F2" fill-rule="evenodd" d="M22 5.924a9.58 9.58 0 01-.562.22 12.11 12.11 0 01-.58.19 8.804 8.804 0 01-1.212.234 4.84 4.84 0 00.591-.434 3.97 3.97 0 00.918-1.148c.12-.221.217-.449.288-.683a7.701 7.701 0 01-1.914.82c-.228.065-.455.12-.683.166a4.418 4.418 0 00-.62-.532 3.99 3.99 0 00-.718-.405 3.725 3.725 0 00-.801-.264 4.184 4.184 0 00-.86-.088c-.566 0-1.098.107-1.596.322a4.147 4.147 0 00-1.304.88 4.147 4.147 0 00-.879 1.303 3.988 3.988 0 00-.322 1.597 5.987 5.987 0 00.02.478l.039.23c.013.074.029.15.049.23a11.73 11.73 0 01-4.756-1.28 11.767 11.767 0 01-2.012-1.32 11.513 11.513 0 01-1.69-1.689 3.527 3.527 0 00-.41.977c-.052.169-.09.345-.112.527a4.484 4.484 0 00-.034.556c0 .359.042.702.127 1.03.084.33.208.64.37.933.157.293.348.562.572.806.225.244.477.46.757.65a4.162 4.162 0 01-.977-.157 3.096 3.096 0 01-.454-.151 4.834 4.834 0 01-.434-.21v.049c0 .501.084.975.254 1.42.169.447.4.845.693 1.197.293.358.64.66 1.04.903.4.244.835.412 1.304.503a3.646 3.646 0 01-.259.069 1.84 1.84 0 01-.269.039 3.895 3.895 0 01-1.132-.005 4.906 4.906 0 00-.186-.025c.13.404.32.778.566 1.123.248.345.538.645.87.899a4.017 4.017 0 002.393.82 7.78 7.78 0 01-1.119.742c-.394.215-.806.4-1.235.557a8.25 8.25 0 01-2.744.459h-.245c-.084 0-.166-.003-.244-.01a81.704 81.704 0 01-.249-.02A2.825 2.825 0 012 18.405a11.628 11.628 0 002.959 1.358c.527.162 1.07.285 1.626.366.557.081 1.125.122 1.704.122 1.888 0 3.558-.353 5.01-1.06 1.452-.706 2.672-1.619 3.662-2.739a11.882 11.882 0 002.241-3.76c.511-1.386.767-2.757.767-4.11a2.12 2.12 0 00-.005-.138 1.918 1.918 0 01-.005-.136V8.18a.966.966 0 00-.01-.137c.202-.143.396-.296.581-.459.186-.163.366-.332.542-.508.17-.176.332-.361.489-.556A9.69 9.69 0 0022 5.924z"/></svg>
